dist/img/product/engineer.svg

<svg width="80" height="80" viewBox="0 0 80 80" fill="none" xmlns="http://www.w3.org/2000/svg">
<rect width="80" height="80" rx="5" fill="#D1327F"/>
<g clip-path="url(#clip0_121_13)">
<path d="M69.4375 49.1875C69.25 48.25 68.125 47.6875 67.1875 47.875C65.875 48.25 64.9375 47.875 64.75 47.5C64.5625 47.125 64.75 46.1875 65.6875 45.0625C66.4375 44.3125 66.4375 43.1875 65.6875 42.4375C63.8125 40.5625 61.5625 39.25 58.9375 38.5C58 38.3125 56.875 38.875 56.6875 39.8125C56.3125 41.125 55.5625 41.6875 55 41.6875C54.4375 41.6875 53.875 40.9375 53.3125 39.8125C52.9375 38.875 52 38.3125 51.0625 38.5C48.4375 39.25 46.1875 40.5625 44.3125 42.4375C43.5625 43.1875 43.5625 44.3125 44.3125 45.0625C45.25 46 45.4375 46.9375 45.25 47.5C45.0625 47.875 44.125 48.25 42.8125 47.875C41.875 47.6875 40.75 48.25 40.5625 49.1875C40.1875 50.5 40 51.8125 40 53.125C40 54.4375 40.1875 55.75 40.5625 57.0625C40.75 58 41.875 58.5625 42.8125 58.375C44.125 58 45.0625 58.375 45.25 58.75C45.4375 59.125 45.25 60.0625 44.3125 61.1875C43.5625 61.9375 43.5625 63.0625 44.3125 63.8125C46.1875 65.6875 48.4375 67 51.0625 67.75C51.25 67.75 51.4375 67.75 51.625 67.75C52.375 67.75 53.125 67.1875 53.5 66.4375C53.875 65.125 54.625 64.5625 55.1875 64.5625C55.75 64.5625 56.3125 65.3125 56.875 66.4375C57.25 67.375 58.1875 67.9375 59.125 67.75C61.75 67 64 65.6875 65.875 63.8125C66.625 63.0625 66.625 61.9375 65.875 61.1875C64.9375 60.25 64.75 59.3125 64.9375 58.75C65.125 58.375 66.0625 58 67.375 58.375C68.3125 58.5625 69.4375 58 69.625 57.0625C70 55.75 70.1875 54.4375 70.1875 53.125C70.1875 51.8125 69.8125 50.5 69.4375 49.1875ZM55 60.625C50.875 60.625 47.5 57.25 47.5 53.125C47.5 49 50.875 45.625 55 45.625C59.125 45.625 62.5 49 62.5 53.125C62.5 57.25 59.125 60.625 55 60.625Z" fill="#F1EDF3"/>
<path d="M36.25 53.125C36.25 50.875 36.625 48.8125 37.375 46.9375C37.375 46.75 37.375 46.75 37.375 46.5625L37.5625 46.375C38.5 44.125 39.625 42.25 41.125 40.5625C41.3125 39.8125 41.5 39.25 41.6875 38.5C41.6875 37.9375 41.6875 37.375 41.3125 37C40.9375 36.625 40.375 36.25 39.8125 36.25C37.75 36.25 35.875 35.5 34.375 34.375H45.625C46.75 34.375 47.5 33.625 47.5 32.5C47.5 31.375 46.75 30.625 45.625 30.625H45.25V30.25C45.25 26.875 44.125 23.875 42.25 21.25L40.9375 25.9375C40.75 26.6875 40 27.25 39.0625 27.25C38.875 27.25 38.6875 27.25 38.5 27.25C37.5625 26.875 37 25.9375 37.1875 25L39.4375 17.3125C39.4375 16.75 39.0625 16.1875 38.5 15.8125C33.625 13.375 27.8125 13.375 22.9375 15.8125C22.1875 15.8125 22 16.5625 21.8125 17.125L24.0625 24.8125C24.4375 25.75 23.6875 26.875 22.75 27.0625C22.5625 27.0625 22.375 27.0625 22.1875 27.0625C21.4375 27.0625 20.6875 26.5 20.3125 25.75L19.1875 21.25C17.3125 23.875 16.1875 26.875 16.1875 30.25V30.625H15.625C14.5 30.625 13.75 31.375 13.75 32.5C13.75 33.625 14.5 34.375 15.625 34.375H19.375V36.25C19.375 40.375 21.0625 44.125 23.875 46.5625C23.5 49.1875 21.8125 51.4375 19.1875 52.1875C14.5 53.5 10.9375 57.625 9.8125 62.875C9.625 63.8125 9.8125 64.5625 10.375 65.3125C11.125 65.875 11.875 66.25 12.8125 66.25H41.6875C38.3125 62.875 36.25 58.1875 36.25 53.125Z" fill="#F1EDF3"/>
</g>
<defs>
<clipPath id="clip0_121_13">
<rect width="60" height="60" fill="white" transform="translate(10 10)"/>
</clipPath>
</defs>
</svg>

<svg width="80" height="80" fill="none" xmlns="http://www.w3.org/2000/svg"><rect width="80" height="80" rx="5" fill="#D1327F"/><g clip-path="url(#a)" fill="#F1EDF3"><path d="M69.438 49.188c-.188-.938-1.313-1.5-2.25-1.313-1.313.375-2.25 0-2.438-.375-.188-.375 0-1.313.938-2.438.75-.75.75-1.874 0-2.624-1.876-1.876-4.126-3.188-6.75-3.938-.938-.188-2.063.375-2.25 1.313-.376 1.312-1.126 1.874-1.688 1.874-.563 0-1.125-.75-1.688-1.874-.374-.938-1.312-1.5-2.25-1.313-2.624.75-4.874 2.063-6.75 3.938-.75.75-.75 1.874 0 2.624.938.938 1.126 1.876.938 2.438-.188.375-1.125.75-2.438.375-.937-.188-2.062.375-2.25 1.313A14.273 14.273 0 0 0 40 53.124c0 1.313.188 2.625.563 3.938.187.937 1.312 1.5 2.25 1.312 1.312-.375 2.25 0 2.437.375.188.375 0 1.313-.938 2.438-.75.75-.75 1.874 0 2.624 1.876 1.876 4.126 3.188 6.75 3.938h.563c.75 0 1.5-.563 1.875-1.313.375-1.312 1.125-1.874 1.688-1.874.562 0 1.124.75 1.687 1.874.375.938 1.313 1.5 2.25 1.313 2.625-.75 4.875-2.063 6.75-3.938.75-.75.75-1.874 0-2.624-.938-.938-1.125-1.876-.938-2.438.188-.375 1.126-.75 2.438-.375.938.188 2.063-.375 2.25-1.313.375-1.312.563-2.624.563-3.937 0-1.313-.376-2.625-.75-3.938ZM55 60.624c-4.125 0-7.5-3.375-7.5-7.5s3.375-7.5 7.5-7.5 7.5 3.375 7.5 7.5-3.375 7.5-7.5 7.5Z"/><path d="M36.25 53.125c0-2.25.375-4.313 1.125-6.188v-.374l.188-.188c.937-2.25 2.062-4.125 3.562-5.813.188-.75.375-1.312.563-2.062 0-.563 0-1.125-.376-1.5-.374-.375-.937-.75-1.5-.75-2.062 0-3.937-.75-5.437-1.875h11.25c1.125 0 1.875-.75 1.875-1.875s-.75-1.875-1.875-1.875h-.375v-.375c0-3.375-1.125-6.375-3-9l-1.313 4.688c-.187.75-.937 1.312-1.874 1.312H38.5c-.938-.375-1.5-1.313-1.313-2.25l2.25-7.688c0-.562-.374-1.125-.937-1.5a17.474 17.474 0 0 0-15.563 0c-.75 0-.937.75-1.125 1.313l2.25 7.688c.375.937-.375 2.062-1.312 2.25h-.563c-.75 0-1.5-.563-1.875-1.313l-1.125-4.5c-1.875 2.625-3 5.625-3 9v.375h-.562c-1.125 0-1.875.75-1.875 1.875s.75 1.875 1.875 1.875h3.75v1.875c0 4.125 1.688 7.875 4.5 10.313-.375 2.624-2.063 4.874-4.688 5.624-4.687 1.313-8.25 5.438-9.375 10.688-.187.938 0 1.688.563 2.438.75.562 1.5.937 2.438.937h28.874a18.577 18.577 0 0 1-5.437-13.125Z"/></g><defs><clipPath id="a"><path fill="#fff" transform="translate(10 10)" d="M0 0h60v60H0z"/></clipPath></defs></svg>
